X: 116
T: La fleur de biault\'e
N: Derived from Mar3016-La_fleur_de_biaulte.krn
C: Johannes Martini
%%abc-version 2.0
%%abcx-abcm2ps-target-version 5.9.1 (29 Sep 2008)
%%abc-creator hum2abc beta
%%abcx-conversion-date 2019/02/17 07:19:43
%%abc-edited-by Jesse Rodin
%%abc-edited-by Chris Gage 11-06-2014
%%abcx-initial-encoding-date 2015/03/02/
%%humdrum-veritas 2806870046
%%humdrum-veritas-data 3675352743
%%linebreak <none>
%%barnumbers 0
L: 1/4
M: 2/1
Q: 1/2=120
%%staves [1 2 3 4]
V: 1 clef=treble
V: 2 clef=treble-8
V: 3 clef=treble-8
V: 4 clef=bass
K: C
[V:1] z8 | 
[V:2] G6F2 | 
[V:3] z8 | 
[V:4] z8 | 
[V:1] z8 | 
[V:2] E4D4 | 
[V:3] z8 | 
[V:4] z8 | 
[V:1] z8 | 
[V:2] d2e3dd2- | 
[V:3] z8 | 
[V:4] G,6F,2 | 
[V:1] z8 | 
[V:2] d2^c2d4 | 
[V:3] z8 | 
[V:4] E,4D,4 | 
[V:1] G6F2 | 
[V:2] e4c2A2 | 
[V:3] z8 | 
[V:4] C,2E,4D,2 | 
[V:1] E4D4 | 
[V:2] c4d2B2- | 
[V:3] z8 | 
[V:4] C,2B,,A,,B,,2G,,2- | 
[V:1] C2G4A2 | 
[V:2] B2d2c2d2 | 
[V:3] G6F2 | 
[V:4] G,,2G,,2C,D,E,F, | 
[V:1] B2c2d4 | 
[V:2] e4A4 | 
[V:3] E4D4 | 
[V:4] G,4F,2A,2 | 
[V:1] B2d4c2 | 
[V:2] B2G2B2c2 | 
[V:3] G6A2 | 
[V:4] G,2B,4A,2 | 
[V:1] B4A4 | 
[V:2] d3ef4 | 
[V:3] B2c2d4 | 
[V:4] G,3F,D,4 | 
[V:1] G2F2_B2A2- | 
[V:2] d4f2e2- | 
[V:3] B2d4c2 | 
[V:4] G,,4z4 | 
[V:1] AGG4^F2 | 
[V:2] e2d2d4 | 
[V:3] B2G2A4 | 
[V:4] z4D,4 | 
[V:1] G4z4 | 
[V:2] B2G2A2D2 | 
[V:3] G4d4 | 
[V:4] E,4D,2B,,2- | 
[V:1] z4D4 | 
[V:2] G4F2G2 | 
[V:3] e4d2B2- | 
[V:4] B,,2C,2D,2G,,2- | 
[V:1] E4D2B,2- | 
[V:2] B2A2F2G2- | 
[V:3] B2c2d4 | 
[V:4] G,,2A,,2B,,2G,,2- | 
[V:1] B,2C2DCB,A, | 
[V:2] G2FED2d2 | 
[V:3] G4z2D2 | 
[V:4] G,,2A,,2B,,2G,,2 | 
[V:1] G,4z2D2 | 
[V:2] c2e3dd2- | 
[V:3] E2G4F2 | 
[V:4] C,3D,E,2F,2 | 
[V:1] E2G4F2 | 
[V:2] d2c2d4 | 
[V:3] E4D4 | 
[V:4] G,2F,G,A,4 | 
[V:1] E4D4 | 
[V:2] c4A2_B2- | 
[V:3] A4F2G2- | 
[V:4] A,,2C,2D,2G,,2- | 
[V:1] z4A4 | 
[V:2] B2AGF4 | 
[V:3] G2FED4 | 
[V:4] G,,A,,B,,C,D,E,F,G, | 
[V:1] F2G4FE | 
[V:2] D2E4F2 | 
[V:3] z4G2A2 | 
[V:4] A,2G,4D,2 | 
[V:1] D4G2A2 | 
[V:2] G2B4c2 | 
[V:3] B2d4c2 | 
[V:4] G,3A,B,2A,2 | 
[V:1] B2d4c2 | 
[V:2] B2G2c4 | 
[V:3] d2B2A4 | 
[V:4] G,4z2F,2- | 
[V:1] d2B2A4 | 
[V:2] f2g2f3e | 
[V:3] D2G2ABcd | 
[V:4] F,2E,2F,4 | 
[V:1] D2G2F2E2- | 
[V:2] d2e2A2c2- | 
[V:3] B2G2A4 | 
[V:4] G,2E,2D,2C,2 | 
[V:1] [M:3/1]EDF3ED4^C2 | 
[V:2] [M:3/1]c2F4G2A4 | 
[V:3] [M:3/1]G2A2D4E4 | 
[V:4] [M:3/1]E,2D,4C,B,,A,,4 | 
[V:1] D12 | 
[V:2] F6E2D4 | 
[V:3] D6z2z4 | 
[V:4] A,6G,2F,4 | 
[V:1] z12 | 
[V:2] C8c4 | 
[V:3] G8A4 | 
[V:4] E,2C,2E,4F,4 | 
[V:1] G8A4 | 
[V:2] B4e4f4 | 
[V:3] B4c6B2 | 
[V:4] G,4C,4F,4 | 
[V:1] B4c6B2 | 
[V:2] d4f8 | 
[V:3] G4A2B2c2d2 | 
[V:4] G,4F,6D,2 | 
[V:1] G4A2B2c2d2 | 
[V:2] d4e4f4 | 
[V:3] B4A8 | 
[V:4] G,4z4F,4 | 
[V:1] B4A8 | 
[V:2] d8A4 | 
[V:3] G4d6c2 | 
[V:4] G,4D,4F,4 | 
[V:1] G4d6c2 | 
[V:2] d4g4f4 | 
[V:3] B2A2G4A4 | 
[V:4] G,6E,2F,4 | 
[V:1] B4G2A4G2 | 
[V:2] d4c4e4 | 
[V:3] G4c8 | 
[V:4] G,4C,2F,4E,2 | 
[V:1] G6^FEF4 | 
[V:2] d8d4 | 
[V:3] B4A4A4 | 
[V:4] G,4D,8 | 
[V:1] [M:2/1]G6FE | 
[V:2] [M:2/1]B4c4 | 
[V:3] [M:2/1]G8 | 
[V:4] [M:2/1]G,,4C,4 | 
[V:1] D8 | 
[V:2] d2B3cd2- | 
[V:3] z4G4 | 
[V:4] B,,2G,,4G,2 | 
[V:1] z4G4 | 
[V:2] dcBAG4 | 
[V:3] A2B4c2 | 
[V:4] F,2G,4E,2 | 
[V:1] A2B4A2 | 
[V:2] z2g4f2 | 
[V:3] A2G2d4 | 
[V:4] F,2G,2D,4 | 
[V:1] B2c2d4 | 
[V:2] g2e2f2d2- | 
[V:3] G4D2G2- | 
[V:4] z2G,2A,2B,2 | 
[V:1] G4D2G2- | 
[V:2] d2e2d2B2 | 
[V:3] G2c2B2G2 | 
[V:4] G,2z2G,4 | 
[V:1] G2c2B2G2 | 
[V:2] c2A2B2e2 | 
[V:3] A4G2c2- | 
[V:4] F,4G,2E,2 | 
[V:1] A4B2G2- | 
[V:2] A4F2G2 | 
[V:3] c2d4e2 | 
[V:4] F,2D,4C,2- | 
[V:1] G2A2B4 | 
[V:2] E2D2G2B2 | 
[V:3] c4d2e2- | 
[V:4] C,2B,,A,,G,,4 | 
[V:1] c4d4 | 
[V:2] A2c2B2A2 | 
[V:3] e2f4d2 | 
[V:4] A,,4z2D,2- | 
[V:1] A2d4^c2 | 
[V:2] FGABc4 | 
[V:3] f4e4 | 
[V:4] D,E,F,G,A,4 | 
[V:1] d6z6 | 
[V:2] [M:3/1]A4B4A4 | 
[V:3] d12 | 
[V:4] [M:3/1]D,6E,2F,4 | 
[V:1] [M:3/1]B8c4 | 
[V:2] G4d4c4 | 
[V:3] z12 | 
[V:4] G,2A,2B,2C2A,4 | 
[V:1] d8c4 | 
[V:2] g4d4f4 | 
[V:3] [M:3/1]B8c4 | 
[V:4] G,4F,2G,2A,4 | 
[V:1] B4A8 | 
[V:2] g4f8 | 
[V:3] d8c4 | 
[V:4] G,4D,4F,4 | 
[V:1] D4E4F4- | 
[V:2] d4c4A4 | 
[V:3] B4A8 | 
[V:4] G,4C,4D,4 | 
[V:1] F4G4A4 | 
[V:2] d4c4d4- | 
[V:3] D4E4F4 | 
[V:4] F,4E,4D,4 | 
[V:1] B4A6G2 | 
[V:2] d4f4d4 | 
[V:3] G4A4B4 | 
[V:4] G,,4D,4G,4 | 
[V:1] G6^F2F2E2 | 
[V:2] e4d8 | 
[V:3] c4A8 | 
[V:4] C,4D,8 | 
[V:1] G12 |]  
[V:2] d12 |]  
[V:3] G12 |]  
[V:4] G,,12 |]  



